small/extra/status/standard/nm-signal-75.svg

<?xml version="1.0" encoding="UTF-8" standalone="no"?>
<svg
   xmlns:dc="http://purl.org/dc/elements/1.1/"
   xmlns:cc="http://creativecommons.org/ns#"
   xmlns:rdf="http://www.w3.org/1999/02/22-rdf-syntax-ns#"
   xmlns:svg="http://www.w3.org/2000/svg"
   xmlns="http://www.w3.org/2000/svg"
   xmlns:xlink="http://www.w3.org/1999/xlink"
   id="svg2"
   viewBox="0 0 512 512"
   height="100%"
   width="100%"
   version="1.1">
  <metadata
     id="metadata106">
    <rdf:RDF>
      <cc:Work
         rdf:about="">
        <dc:format>image/svg+xml</dc:format>
        <dc:type
           rdf:resource="http://purl.org/dc/dcmitype/StillImage" />
        <dc:title />
      </cc:Work>
    </rdf:RDF>
  </metadata>
  <defs
     id="defs104">
    <filter
       id="filter3174"
       color-interpolation-filters="sRGB">
      <feGaussianBlur
         id="feGaussianBlur3176"
         stdDeviation="1.71" />
    </filter>
    <linearGradient
       id="ButtonShadow"
       y2="7.0165"
       gradientUnits="userSpaceOnUse"
       x2="45.448"
       gradientTransform="scale(1.0059,0.99417)"
       y1="92.54"
       x1="45.448">
      <stop
         id="stop3750-1"
         offset="0" />
      <stop
         id="stop3752-6"
         style="stop-opacity:.58824"
         offset="1" />
    </linearGradient>
    <filter
       id="filter3174-2"
       color-interpolation-filters="sRGB">
      <feGaussianBlur
         id="feGaussianBlur3176-6"
         stdDeviation="1.71" />
    </filter>
    <linearGradient
       y2="7.0165"
       x2="45.448"
       y1="92.54"
       x1="45.448"
       gradientTransform="scale(1.0059,0.99417)"
       gradientUnits="userSpaceOnUse"
       id="linearGradient62873"
       xlink:href="#ButtonShadow" />
  </defs>
  <g
     id="layer2"
     style="display:none"
     transform="matrix(6.7274189,0,0,6.7274189,-1328.8681,-712.41656)">
    <rect
       id="rect3745"
       style="opacity:0.9;fill:url(#ButtonShadow);filter:url(#filter3174)"
       rx="6"
       ry="6"
       height="85"
       width="86"
       y="7"
       x="5" />
  </g>
  <g
     id="layer2-1"
     style="display:none"
     transform="matrix(6.7274189,0,0,6.7274189,-1522.6492,-780.80988)">
    <rect
       id="rect3745-0"
       style="opacity:0.9;fill:url(#linearGradient62873);filter:url(#filter3174-2)"
       rx="6"
       ry="6"
       height="85"
       width="86"
       y="7"
       x="5" />
  </g>
  <path
     d="M 26,0 C 11.60265,0 0,11.60265 0,26 l 0,460 c 0,14.39735 11.60265,26 26,26 l 460,0 c 14.39735,0 26,-11.60265 26,-26 L 512,26 C 512,11.60265 500.39735,0 486,0 L 26,0 Z"
     id="rect2986"
     style="fill:#ef6a47;fill-opacity:1;stroke:none" />
  <path
     id="path3280"
     d="m 471,161.78125 c -183.28125,223.4928 -68.28031,84.88303 -160.34375,196.25 C 298.87612,340.40168 278.79417,328.8125 256,328.8125 c -22.61797,0 -42.55896,11.41188 -54.375,28.8125 l 18.96875,18.96875 c 6.54187,-12.90593 19.94783,-21.75 35.40625,-21.75 21.9006,0 39.65625,17.75567 39.65625,39.65625 0,21.90058 -17.75565,39.65625 -39.65625,39.65625 -10.9503,0 -20.85476,-4.41726 -28.03125,-11.59375 L 317.40625,512 486,512 c 14.39735,0 26,-11.60265 26,-26 l 0,-283.21875 -41,-41 z M 220.125,377.5625 c -0.23266,0.49183 -0.44364,0.99729 -0.65625,1.5 0.2143,-0.50664 0.42175,-1.00438 0.65625,-1.5 z m -2.53125,7.0625 c -0.15458,0.60472 -0.31107,1.197 -0.4375,1.8125 0.12683,-0.61487 0.28256,-1.20839 0.4375,-1.8125 z m -0.4375,1.90625 c -0.12993,0.64016 -0.24499,1.28654 -0.34375,1.9375 0.0987,-0.64626 0.21419,-1.3019 0.34375,-1.9375 z"
     style="color:#000000;visibility:visible;opacity:0.25;fill:#000000;fill-opacity:1;fill-rule:evenodd;stroke:none;stroke-width:1px;marker:none" />
  <path
     style="color:#000000;display:inline;overflow:visible;visibility:visible;opacity:0.4;fill:#ffffff;fill-opacity:1;fill-rule:evenodd;stroke:none;stroke-width:1px;marker:none;enable-background:accumulate"
     d="m 256,77.83672 c -76.2987,0 -152.5993,33.10226 -215,83.95156 182.57505,222.34303 71.328,86.68689 160.625,195.84375 11.81604,-17.40062 31.75703,-28.8125 54.375,-28.8125 22.79417,0 42.87612,11.58918 54.65625,29.21875 C 402.71969,246.67131 287.71875,385.28108 471,161.78828 408.59635,110.93898 332.29876,77.83672 256,77.83672 Z m 0,277.01406 c -21.9006,0 -39.65625,17.75567 -39.65625,39.65625 0,21.90058 17.75565,39.65625 39.65625,39.65625 21.9006,0 39.65625,-17.75567 39.65625,-39.65625 0,-21.90058 -17.75565,-39.65625 -39.65625,-39.65625 z"
     id="path3189" />
  <path
     id="path3608"
     d="m 255.98437,157.47578 c -64.1815,0 -123.13239,22.37504 -169.5625,59.65625 68.9983,83.99493 43.4632,52.86219 115.1562,140.5 11.81606,-17.40062 31.75708,-28.8125 54.37505,-28.8125 22.79417,0 42.87613,11.58918 54.65625,29.21875 82.69458,-100.03368 0.16971,-0.63122 114.96875,-140.875 -46.43884,-37.30686 -105.43552,-59.6875 -169.59375,-59.6875 z m -0.0312,197.375 c -21.9006,0 -39.65625,17.75567 -39.65625,39.65625 0,21.90058 17.75565,39.65625 39.65625,39.65625 21.90061,0 39.65625,-17.75567 39.65625,-39.65625 0,-21.90058 -17.75564,-39.65625 -39.65625,-39.65625 z"
     style="fill:#ffffff;fill-opacity:1" />
</svg>

<?xml version="1.0" encoding="UTF-8" standalone="no"?>
<!-- Created with Inkscape (http://www.inkscape.org/) -->

<svg
   xmlns:dc="http://purl.org/dc/elements/1.1/"
   xmlns:cc="http://creativecommons.org/ns#"
   xmlns:rdf="http://www.w3.org/1999/02/22-rdf-syntax-ns#"
   xmlns:svg="http://www.w3.org/2000/svg"
   xmlns="http://www.w3.org/2000/svg"
   xmlns:sodipodi="http://sodipodi.sourceforge.net/DTD/sodipodi-0.dtd"
   xmlns:inkscape="http://www.inkscape.org/namespaces/inkscape"
   version="1.1"
   width="100%"
   height="100%"
   viewBox="0 0 512 512"
   id="svg2"
   inkscape:version="0.48.5 r10040"
   sodipodi:docname="nm-signal-75.svg">
  <sodipodi:namedview
     pagecolor="#ffffff"
     bordercolor="#666666"
     borderopacity="1"
     objecttolerance="10"
     gridtolerance="10"
     guidetolerance="10"
     inkscape:pageopacity="0"
     inkscape:pageshadow="2"
     inkscape:window-width="1303"
     inkscape:window-height="741"
     id="namedview78"
     showgrid="false"
     inkscape:zoom="0.65186408"
     inkscape:cx="548.34588"
     inkscape:cy="45.34603"
     inkscape:window-x="59"
     inkscape:window-y="0"
     inkscape:window-maximized="0"
     inkscape:current-layer="svg2" />
  <metadata
     id="metadata10">
    <rdf:RDF>
      <cc:Work
         rdf:about="">
        <dc:format>image/svg+xml</dc:format>
        <dc:type
           rdf:resource="http://purl.org/dc/dcmitype/StillImage" />
        <dc:title />
      </cc:Work>
    </rdf:RDF>
  </metadata>
  <defs
     id="defs8">
    <clipPath
       id="clipPath3433">
      <path
         style="fill:#cd1d31;fill-opacity:1;stroke:none"
         id="path3435"
         inkscape:connector-curvature="0"
         d="M 26,0 C 11.602648,0 0,11.602648 0,26 l 0,460 c 0,14.39735 11.602648,26 26,26 l 460,0 c 14.39735,0 26,-11.60265 26,-26 L 512,26 C 512,11.602648 500.39735,0 486,0 L 26,0 z" />
    </clipPath>
    <clipPath
       clipPathUnits="userSpaceOnUse"
       id="clipPath3423">
      <path
         d="M 26,0 C 11.602648,0 0,11.602648 0,26 l 0,460 c 0,14.39735 11.602648,26 26,26 l 460,0 c 14.39735,0 26,-11.60265 26,-26 L 512,26 C 512,11.602648 500.39735,0 486,0 L 26,0 z"
         inkscape:connector-curvature="0"
         id="path3425"
         style="fill:#ef6a47;fill-opacity:1;stroke:none" />
    </clipPath>
    <clipPath
       id="clipPath3433-1">
      <path
         style="fill:#cd1d31;fill-opacity:1;stroke:none"
         id="path3435-1"
         inkscape:connector-curvature="0"
         d="M 26,0 C 11.602648,0 0,11.602648 0,26 l 0,460 c 0,14.39735 11.602648,26 26,26 l 460,0 c 14.39735,0 26,-11.60265 26,-26 L 512,26 C 512,11.602648 500.39735,0 486,0 L 26,0 z" />
    </clipPath>
    <clipPath
       id="clipPath3423-1"
       clipPathUnits="userSpaceOnUse">
      <path
         style="fill:#ef6a47;fill-opacity:1;stroke:none"
         id="path3425-0"
         inkscape:connector-curvature="0"
         d="M 26,0 C 11.602648,0 0,11.602648 0,26 l 0,460 c 0,14.39735 11.602648,26 26,26 l 460,0 c 14.39735,0 26,-11.60265 26,-26 L 512,26 C 512,11.602648 500.39735,0 486,0 L 26,0 z" />
    </clipPath>
  </defs>
  <path
     style="fill:#ef6a47;fill-opacity:1;stroke:none"
     id="rect2986"
     inkscape:connector-curvature="0"
     d="M 26,0 C 11.602648,0 0,11.602648 0,26 l 0,460 c 0,14.39735 11.602648,26 26,26 l 460,0 c 14.39735,0 26,-11.60265 26,-26 L 512,26 C 512,11.602648 500.39735,0 486,0 L 26,0 z" />
  <path
     style="opacity:0.25;color:#000000;fill:#000000;fill-opacity:1;fill-rule:evenodd;stroke:none;stroke-width:1px;marker:none;visibility:visible"
     d="M 471 161.78125 C 287.71875 385.27405 402.71969 246.66428 310.65625 358.03125 C 298.87612 340.40168 278.79417 328.8125 256 328.8125 C 233.38203 328.8125 213.44104 340.22438 201.625 357.625 L 220.59375 376.59375 C 227.13562 363.68782 240.54158 354.84375 256 354.84375 C 277.9006 354.84375 295.65625 372.59942 295.65625 394.5 C 295.65625 416.40058 277.9006 434.15625 256 434.15625 C 245.0497 434.15625 235.14524 429.73899 227.96875 422.5625 L 317.40625 512 L 486 512 C 500.39735 512 512 500.39735 512 486 L 512 202.78125 L 471 161.78125 z M 220.125 377.5625 C 219.89234 378.05433 219.68136 378.55979 219.46875 379.0625 C 219.68305 378.55586 219.8905 378.05812 220.125 377.5625 z M 217.59375 384.625 C 217.43917 385.22972 217.28268 385.822 217.15625 386.4375 C 217.28308 385.82263 217.43881 385.22911 217.59375 384.625 z M 217.15625 386.53125 C 217.02632 387.17141 216.91126 387.81779 216.8125 388.46875 C 216.91125 387.82249 217.02669 387.16685 217.15625 386.53125 z "
     id="path3280" />
  <text
     style="font-size:129.22999573px;line-height:125%;letter-spacing:0;word-spacing:0;font-family:Gentium Book Basic"
     id="text20"
     y="2.5963202"
     x="-704.51978">
    <tspan
       id="tspan22"
       y="2.5963202"
       x="-704.51978" />
  </text>
  <text
     style="font-size:46.95375824px;text-anchor:middle;font-family:Arial"
     id="text24"
     transform="scale(4.0128205,0.24920128)"
     y="-338.72934"
     x="21.513594" />
  <text
     style="font-size:129.22999573px;line-height:125%;letter-spacing:0;word-spacing:0;font-family:Gentium Book Basic"
     id="text26"
     y="-77.403679"
     x="-123.24976">
    <tspan
       id="tspan28"
       y="-77.403679"
       x="-123.24976" />
  </text>
  <text
     style="font-size:46.95375824px;text-anchor:middle;font-family:Arial"
     id="text30"
     transform="scale(4.0128205,0.24920128)"
     y="-659.76752"
     x="166.36287" />
  <text
     style="font-size:129.22999573px;line-height:125%;letter-spacing:0;word-spacing:0;font-family:Gentium Book Basic"
     id="text32"
     y="-258.66367"
     x="-1194.8298">
    <tspan
       id="tspan34"
       y="-258.66367"
       x="-1194.8298" />
  </text>
  <text
     style="font-size:46.95375824px;text-anchor:middle;font-family:Arial"
     id="text36"
     transform="scale(4.0128205,0.24920128)"
     y="-1387.1139"
     x="-100.67577" />
  <text
     style="font-size:129.22999573px;line-height:125%;letter-spacing:0;word-spacing:0;font-family:Gentium Book Basic"
     id="text38"
     y="-475.13367"
     x="-96.779793">
    <tspan
       id="tspan40"
       y="-475.13367"
       x="-96.779793" />
  </text>
  <text
     style="font-size:46.95375824px;text-anchor:middle;font-family:Arial"
     id="text42"
     transform="scale(4.0128205,0.24920128)"
     y="-2255.7896"
     x="172.96284" />
  <text
     style="font-size:129.22999573px;line-height:125%;letter-spacing:0;word-spacing:0;font-family:Gentium Book Basic"
     id="text44"
     y="-555.13367"
     x="484.49023">
    <tspan
       id="tspan46"
       y="-555.13367"
       x="484.49023" />
  </text>
  <text
     style="font-size:46.95375824px;text-anchor:middle;font-family:Arial"
     id="text48"
     transform="scale(4.0128205,0.24920128)"
     y="-2576.8179"
     x="317.81207" />
  <text
     style="font-size:129.22999573px;line-height:125%;letter-spacing:0;word-spacing:0;font-family:Gentium Book Basic"
     id="text50"
     y="-1027.5337"
     x="95.370232">
    <tspan
       id="tspan52"
       y="-1027.5337"
       x="95.370232" />
  </text>
  <text
     style="font-size:46.95375824px;text-anchor:middle;font-family:Arial"
     id="text54"
     transform="scale(4.0128205,0.24920128)"
     y="-4472.4683"
     x="220.84254" />
  <text
     style="font-size:129.22999573px;line-height:125%;letter-spacing:0;word-spacing:0;font-family:Gentium Book Basic"
     id="text56"
     y="-1107.5437"
     x="676.63025">
    <tspan
       id="tspan58"
       y="-1107.5437"
       x="676.63025" />
  </text>
  <text
     style="font-size:46.95375824px;text-anchor:middle;font-family:Arial"
     id="text60"
     transform="scale(4.0128205,0.24920128)"
     y="-4793.5063"
     x="365.69183" />
  <text
     style="font-size:208.33000183px;line-height:125%;letter-spacing:0;word-spacing:0;font-family:Gentium Book Basic"
     id="text62"
     y="307.17642"
     x="-1156.1698">
    <tspan
       id="tspan64"
       y="307.17642"
       x="-1156.1698" />
  </text>
  <text
     style="font-size:129.22999573px;line-height:125%;letter-spacing:0;word-spacing:0;font-family:Gentium Book Basic"
     id="text20-8"
     y="2.5963202"
     x="-704.51978">
    <tspan
       id="tspan22-7"
       y="2.5963202"
       x="-704.51978" />
  </text>
  <text
     style="font-size:46.95375824px;text-anchor:middle;font-family:Arial"
     id="text24-0"
     transform="scale(4.0128205,0.24920128)"
     y="-338.72934"
     x="21.513594" />
  <text
     style="font-size:129.22999573px;line-height:125%;letter-spacing:0;word-spacing:0;font-family:Gentium Book Basic"
     id="text26-0"
     y="-77.403679"
     x="-123.24976">
    <tspan
       id="tspan28-3"
       y="-77.403679"
       x="-123.24976" />
  </text>
  <text
     style="font-size:46.95375824px;text-anchor:middle;font-family:Arial"
     id="text30-7"
     transform="scale(4.0128205,0.24920128)"
     y="-659.76752"
     x="166.36287" />
  <text
     style="font-size:129.22999573px;line-height:125%;letter-spacing:0;word-spacing:0;font-family:Gentium Book Basic"
     id="text32-2"
     y="-258.66367"
     x="-1194.8298">
    <tspan
       id="tspan34-8"
       y="-258.66367"
       x="-1194.8298" />
  </text>
  <text
     style="font-size:46.95375824px;text-anchor:middle;font-family:Arial"
     id="text36-2"
     transform="scale(4.0128205,0.24920128)"
     y="-1387.1139"
     x="-100.67577" />
  <text
     style="font-size:129.22999573px;line-height:125%;letter-spacing:0;word-spacing:0;font-family:Gentium Book Basic"
     id="text38-7"
     y="-475.13367"
     x="-96.779793">
    <tspan
       id="tspan40-2"
       y="-475.13367"
       x="-96.779793" />
  </text>
  <text
     style="font-size:46.95375824px;text-anchor:middle;font-family:Arial"
     id="text42-3"
     transform="scale(4.0128205,0.24920128)"
     y="-2255.7896"
     x="172.96284" />
  <text
     style="font-size:129.22999573px;line-height:125%;letter-spacing:0;word-spacing:0;font-family:Gentium Book Basic"
     id="text44-6"
     y="-555.13367"
     x="484.49023">
    <tspan
       id="tspan46-7"
       y="-555.13367"
       x="484.49023" />
  </text>
  <text
     style="font-size:46.95375824px;text-anchor:middle;font-family:Arial"
     id="text48-1"
     transform="scale(4.0128205,0.24920128)"
     y="-2576.8179"
     x="317.81207" />
  <text
     style="font-size:129.22999573px;line-height:125%;letter-spacing:0;word-spacing:0;font-family:Gentium Book Basic"
     id="text50-4"
     y="-1027.5337"
     x="95.370232">
    <tspan
       id="tspan52-6"
       y="-1027.5337"
       x="95.370232" />
  </text>
  <text
     style="font-size:46.95375824px;text-anchor:middle;font-family:Arial"
     id="text54-2"
     transform="scale(4.0128205,0.24920128)"
     y="-4472.4683"
     x="220.84254" />
  <text
     style="font-size:129.22999573px;line-height:125%;letter-spacing:0;word-spacing:0;font-family:Gentium Book Basic"
     id="text56-1"
     y="-1107.5437"
     x="676.63025">
    <tspan
       id="tspan58-7"
       y="-1107.5437"
       x="676.63025" />
  </text>
  <text
     style="font-size:46.95375824px;text-anchor:middle;font-family:Arial"
     id="text60-6"
     transform="scale(4.0128205,0.24920128)"
     y="-4793.5063"
     x="365.69183" />
  <text
     style="font-size:208.33000183px;line-height:125%;letter-spacing:0;word-spacing:0;font-family:Gentium Book Basic"
     id="text62-5"
     y="307.17642"
     x="-1156.1698">
    <tspan
       id="tspan64-9"
       y="307.17642"
       x="-1156.1698" />
  </text>
  <path
     id="path3189"
     d="m 256,77.836722 c -76.2987,0 -152.5993,33.102258 -215,83.951558 182.57505,222.34303 71.328,86.68689 160.625,195.84375 11.81604,-17.40062 31.75703,-28.8125 54.375,-28.8125 22.79417,0 42.87612,11.58918 54.65625,29.21875 C 402.71969,246.67131 287.71875,385.28108 471,161.78828 408.59635,110.93898 332.29876,77.836722 256,77.836722 z m 0,277.014058 c -21.9006,0 -39.65625,17.75567 -39.65625,39.65625 0,21.90058 17.75565,39.65625 39.65625,39.65625 21.9006,0 39.65625,-17.75567 39.65625,-39.65625 0,-21.90058 -17.75565,-39.65625 -39.65625,-39.65625 z"
     style="color:#000000;fill:#ffffff;fill-opacity:1;fill-rule:evenodd;stroke:none;stroke-width:1px;marker:none;visibility:visible;display:inline;overflow:visible;enable-background:accumulate;opacity:0.4"
     inkscape:connector-curvature="0"
     sodipodi:nodetypes="sccsccssssss" />
  <text
     sodipodi:linespacing="125%"
     x="-667.51251"
     y="843.15662"
     id="text20-3"
     style="font-size:129.22999573px;line-height:125%;letter-spacing:0;word-spacing:0;font-family:Gentium Book Basic">
    <tspan
       x="-667.51251"
       y="843.15662"
       id="tspan22-4" />
  </text>
  <text
     x="30.735878"
     y="3034.2771"
     transform="scale(4.0128205,0.24920128)"
     id="text24-9"
     style="font-size:46.95375824px;text-anchor:middle;font-family:Arial" />
  <text
     sodipodi:linespacing="125%"
     x="-86.242462"
     y="763.15662"
     id="text26-7"
     style="font-size:129.22999573px;line-height:125%;letter-spacing:0;word-spacing:0;font-family:Gentium Book Basic">
    <tspan
       x="-86.242462"
       y="763.15662"
       id="tspan28-1" />
  </text>
  <text
     x="175.58514"
     y="2713.2488"
     transform="scale(4.0128205,0.24920128)"
     id="text30-8"
     style="font-size:46.95375824px;text-anchor:middle;font-family:Arial" />
  <text
     sodipodi:linespacing="125%"
     x="-1157.8225"
     y="581.89563"
     id="text32-1"
     style="font-size:129.22999573px;line-height:125%;letter-spacing:0;word-spacing:0;font-family:Gentium Book Basic">
    <tspan
       x="-1157.8225"
       y="581.89563"
       id="tspan34-7" />
  </text>
  <text
     x="-91.453499"
     y="1985.8923"
     transform="scale(4.0128205,0.24920128)"
     id="text36-0"
     style="font-size:46.95375824px;text-anchor:middle;font-family:Arial" />
  <text
     sodipodi:linespacing="125%"
     x="-59.772495"
     y="365.42661"
     id="text38-9"
     style="font-size:129.22999573px;line-height:125%;letter-spacing:0;word-spacing:0;font-family:Gentium Book Basic">
    <tspan
       x="-59.772495"
       y="365.42661"
       id="tspan40-0" />
  </text>
  <text
     x="182.18509"
     y="1117.2268"
     transform="scale(4.0128205,0.24920128)"
     id="text42-0"
     style="font-size:46.95375824px;text-anchor:middle;font-family:Arial" />
  <text
     sodipodi:linespacing="125%"
     x="521.4975"
     y="285.4166"
     id="text44-3"
     style="font-size:129.22999573px;line-height:125%;letter-spacing:0;word-spacing:0;font-family:Gentium Book Basic">
    <tspan
       x="521.4975"
       y="285.4166"
       id="tspan46-4" />
  </text>
  <text
     x="327.03439"
     y="796.18854"
     transform="scale(4.0128205,0.24920128)"
     id="text48-5"
     style="font-size:46.95375824px;text-anchor:middle;font-family:Arial" />
  <text
     sodipodi:linespacing="125%"
     x="132.37753"
     y="-186.98341"
     id="text50-0"
     style="font-size:129.22999573px;line-height:125%;letter-spacing:0;word-spacing:0;font-family:Gentium Book Basic">
    <tspan
       x="132.37753"
       y="-186.98341"
       id="tspan52-7" />
  </text>
  <text
     x="230.06485"
     y="-1099.4618"
     transform="scale(4.0128205,0.24920128)"
     id="text54-5"
     style="font-size:46.95375824px;text-anchor:middle;font-family:Arial" />
  <text
     sodipodi:linespacing="125%"
     x="713.63751"
     y="-266.98343"
     id="text56-2"
     style="font-size:129.22999573px;line-height:125%;letter-spacing:0;word-spacing:0;font-family:Gentium Book Basic">
    <tspan
       x="713.63751"
       y="-266.98343"
       id="tspan58-0" />
  </text>
  <text
     x="374.91415"
     y="-1420.4902"
     transform="scale(4.0128205,0.24920128)"
     id="text60-1"
     style="font-size:46.95375824px;text-anchor:middle;font-family:Arial" />
  <g
     id="g62"
     style="font-size:208.33000183px;line-height:125%;letter-spacing:0;word-spacing:0;font-family:Gentium Book Basic"
     transform="translate(-1397.1525,611.79661)">
    <text
       x="277.98999"
       y="535.94"
       id="text64">
      <tspan
         x="277.98999"
         y="535.94"
         id="tspan66" />
    </text>
    <text
       x="-860.84003"
       y="11.553"
       id="text68">
      <tspan
         x="-860.84003"
         y="11.553"
         id="tspan70" />
    </text>
    <text
       x="-3219.6699"
       y="289.67001"
       id="text72">
      <tspan
         x="-3219.6699"
         y="289.67001"
         id="tspan74" />
    </text>
    <text
       x="-2931.46"
       y="62.380001"
       id="text76">
      <tspan
         x="-2931.46"
         y="62.380001"
         id="tspan78" />
    </text>
    <text
       x="1263.14"
       y="-194.52"
       id="text80">
      <tspan
         x="1263.14"
         y="-194.52"
         id="tspan82" />
    </text>
    <text
       x="-864.78998"
       y="-49.48"
       id="text84">
      <tspan
         x="-864.78998"
         y="-49.48"
         id="tspan86" />
    </text>
    <text
       x="-3223.6201"
       y="228.64"
       id="text88">
      <tspan
         x="-3223.6201"
         y="228.64"
         id="tspan90" />
    </text>
    <text
       x="-2935.4099"
       y="1.35"
       id="text92">
      <tspan
         x="-2935.4099"
         y="1.35"
         id="tspan94" />
    </text>
  </g>
  <path
     style="fill:#ffffff;fill-opacity:1"
     d="m 255.98437,157.47578 c -64.1815,0 -123.13239,22.37504 -169.562495,59.65625 68.998295,83.99493 43.463195,52.86219 115.156195,140.5 11.81606,-17.40062 31.75708,-28.8125 54.37505,-28.8125 22.79417,0 42.87613,11.58918 54.65625,29.21875 82.69458,-100.03368 0.16971,-0.63122 114.96875,-140.875 -46.43884,-37.30686 -105.43552,-59.6875 -169.59375,-59.6875 z m -0.0312,197.375 c -21.9006,0 -39.65625,17.75567 -39.65625,39.65625 0,21.90058 17.75565,39.65625 39.65625,39.65625 21.90061,0 39.65625,-17.75567 39.65625,-39.65625 0,-21.90058 -17.75564,-39.65625 -39.65625,-39.65625 z"
     id="path3608"
     inkscape:connector-curvature="0" />
</svg>
